svgs/thin/grate.svg

<svg xmlns="http://www.w3.org/2000/svg" viewBox="0 0 448 512"><!--! Font Awesome Pro 6.6.0 by @fontawesome - https://fontawesome.com License - https://fontawesome.com/license (Commercial License) Copyright 2024 Fonticons, Inc. --><path d="M64 48C37.5 48 16 69.5 16 96l0 320c0 26.5 21.5 48 48 48l320 0c26.5 0 48-21.5 48-48l0-320c0-26.5-21.5-48-48-48L64 48zM0 96C0 60.7 28.7 32 64 32l320 0c35.3 0 64 28.7 64 64l0 320c0 35.3-28.7 64-64 64L64 480c-35.3 0-64-28.7-64-64L0 96zm88 0l64 0 72 0 72 0 64 0c13.3 0 24 10.7 24 24l0 136 0 136c0 13.3-10.7 24-24 24l-64 0-72 0-72 0-64 0c-13.3 0-24-10.7-24-24l0-136 0-136c0-13.3 10.7-24 24-24zm-8 24l0 128 64 0 0-136-56 0c-4.4 0-8 3.6-8 8zm80 128l56 0 0-136-56 0 0 136zm72 0l56 0 0-136-56 0 0 136zm72 0l64 0 0-128c0-4.4-3.6-8-8-8l-56 0 0 136zm0 16l0 136 56 0c4.4 0 8-3.6 8-8l0-128-64 0zm-16 0l-56 0 0 136 56 0 0-136zm-72 0l-56 0 0 136 56 0 0-136zm-72 0l-64 0 0 128c0 4.4 3.6 8 8 8l56 0 0-136z"/></svg>

<svg xmlns="http://www.w3.org/2000/svg" viewBox="0 0 448 512"><!--! Font Awesome Pro 6.4.2 by @fontawesome - https://fontawesome.com License - https://fontawesome.com/license (Commercial License) Copyright 2023 Fonticons, Inc. --><path d="M64 48C37.5 48 16 69.5 16 96V416c0 26.5 21.5 48 48 48H384c26.5 0 48-21.5 48-48V96c0-26.5-21.5-48-48-48H64zM0 96C0 60.7 28.7 32 64 32H384c35.3 0 64 28.7 64 64V416c0 35.3-28.7 64-64 64H64c-35.3 0-64-28.7-64-64V96zm88 0h64 72 72 64c13.3 0 24 10.7 24 24V256 392c0 13.3-10.7 24-24 24H296 224 152 88c-13.3 0-24-10.7-24-24V256 120c0-13.3 10.7-24 24-24zm-8 24V248h64V112H88c-4.4 0-8 3.6-8 8zm80 128h56V112H160V248zm72 0h56V112H232V248zm72 0h64V120c0-4.4-3.6-8-8-8H304V248zm0 16V400h56c4.4 0 8-3.6 8-8V264H304zm-16 0H232V400h56V264zm-72 0H160V400h56V264zm-72 0H80V392c0 4.4 3.6 8 8 8h56V264z"/></svg>
